X: 12075
T: Esther's Arrival
R: reel
M: 4/4
K: Dmajor
DFAd BdAd|cdAd BEEF|DFAd Bdfg|afeg fdAF|
DFAd BdAd|cdAd BEEF|DFAd Bdfg|afeg fdde||
f2 fa gfed|ABcd efge|f2 ef gfed|cdBc ABce|
f2 fa gfed|ABcd efge|f2 ef gfed|cABc dBAF||
DFAd B/c/d Ad|cdAd B~E3|DFAd B/c/d fg|afeg fdAF|
DFAd B/c/d Ad|cdAd BE E/E/E|DFAd B/c/d fg|afeg fdde||
~f3a g/g/f ed|ABcd efge|~f3f gfed|cdBc ABce|
~f3a gfed|ABcd efge|~f3f gfed|cABc dBAF||

